X: 1
T:Alick C. McGregor
M:C
L:1/8
Q:80
C:
S:Reel
K:HP
a|:
ec{g}B{d}c{g}A2{gAd}A3/2a/2|
{ef}ec{g}B{d}A{g}c2{gcd}c3/2a/2|
ec{g}B{d}cA2{gAd}A3/2f/2|  !
{gef}ecac{g}B2{gBd}B3/2a/2| |
ec{g}B{d}c{g}A2{gAd}A3/2a/2|
{ef}ec{g}B{d}A{g}c2{gcd}c3/2a/2|  !
{g}efae{g}faef|
{g}ce{g}B{d}cA2{gAd}A:|
a|:  !
{fg}f2{g}ef{g}ecae|
{gfg}f2ef{g}c2{gcd}c3/2a/2|
{gfg}f2{g}ef{gef}ecae|  !
{gfg}f2{g}ec{g}B2{gBd}B3/2a/2| |
{fg}f2{g}ef{g}ecae|
{gfg}f2ef{g}c2{gcd}c3/2a/2|  !
{gfg}f2{g}ef{gef}ecae|
{gfg}f2{g}ec{g}B2{gBd}B3/2a/2:|
a|:  !
A2{gAd}A3/2c/2{g}A2{gAd}A3/2c/2|
{g}A3/2{d}c/2{e}B3/2d/2{g}c/2e3/2{g}c/2a3/2|
A2{gAd}A3/2{d}c/2{g}A2{gAd}A3/2f/2|  !
{gef}e3/2c/2ac{g}B2{gBd}B3/2a/2| |
A2{gAd}A3/2c/2{g}A2{gAd}A3/2c/2|
{g}A3/2{d}c/2{e}B3/2d/2{g}c/2e3/2{g}c/2a3/2|  !
f/2a3/2e3/2f/2{g}e/2f3/2c3/2e/2|
{g}c/2e3/2{g}B3/2{d}c/2{g}A2{gAd}A2:|
a|:  !
{ef}e2{cd}c3/2e/2{gfg}f2{de}d3/2f/2|
{gef}ecae{g}c2{gcd}c3/2a/2|
{ef}e2{cd}c3/2e/2{gfg}f2{de}d3/2f/2|  !
{gef}ecac{g}B2{gBd}B3/2a/2| |
{ef}e2{cd}c3/2e/2{gfg}f2{de}d3/2f/2|
{gef}ecae{g}c2{gcd}c3/2f/2|  !
{ef}e2{cd}c3/2e/2{gfg}f2{de}d3/2f/2|
{gef}ecac{g}B2{gBd}B3/2a/2:|
